X:3331
T:KNDDEAR1- My Ain Kind Deary
O:england
S:Daniel Wright coll'n of c 1730 without title page
Q:1/4=120
L:1/8
M:C
K:G
A|GEDEG2AB|G/A/B ~A3/2G/ AEEA|GEDEG2Gg|e2d3/2B/ dGG::g|\
e/e/e ~d3/2B/ dGGB|A/A/A ~B3/2G/ AEEA|GEDEG2Gg|\
e/e/e ~d3/2B/ dGGg|e/e/e gd eBgB|A/A/A B3/2G/ AEEA|\
GEDEG2Gg|e/e/e ~d3/2B/ dGG:|]


